common/resources/fonts/svg/plus2.svg

<?xml version="1.0" encoding="UTF-8" standalone="no"?>
<svg width="1024px" height="1024px" viewBox="0 0 1024 1024" version="1.1" xmlns="http://www.w3.org/2000/svg" xmlns:xlink="http://www.w3.org/1999/xlink">
    <!-- Generator: Sketch 3.7.1 (28215) - http://www.bohemiancoding.com/sketch -->
    <title>plus2</title>
    <desc>Created with Sketch.</desc>
    <defs></defs>
    <g id="Page-1" stroke="none" stroke-width="1" fill="none" fill-rule="evenodd">
        <g id="plus2" fill="#000000">
            <path d="M932.03125,400.625 L624.375,400.625 L624.375,92.96875 C624.375,77.5230078 611.851992,65 596.40625,65 L428.59375,65 C413.148008,65 400.625,77.5230078 400.625,92.96875 L400.625,400.625 L92.96875,400.625 C77.5230078,400.625 65,413.148008 65,428.59375 L65,596.40625 C65,611.851992 77.5230078,624.375 92.96875,624.375 L400.625,624.375 L400.625,932.03125 C400.625,947.476992 413.148008,960 428.59375,960 L596.40625,960 C611.851992,960 624.375,947.476992 624.375,932.03125 L624.375,624.375 L932.03125,624.375 C947.476992,624.375 960,611.851992 960,596.40625 L960,428.59375 C960,413.148008 947.476992,400.625 932.03125,400.625 L932.03125,400.625 Z" id="Shape"></path>
        </g>
    </g>
</svg>

<svg width="1024" height="1024" viewBox="0 0 1024 1024">
    <path d="M932.031 400.625H624.375V92.969c0-15.446-12.523-27.969-27.969-27.969H428.594c-15.446 0-27.969 12.523-27.969 27.969v307.656H92.969C77.523 400.625 65 413.148 65 428.594v167.812c0 15.446 12.523 27.969 27.969 27.969h307.656v307.656c0 15.446 12.523 27.969 27.969 27.969h167.812c15.446 0 27.969-12.523 27.969-27.969V624.375h307.656c15.446 0 27.969-12.523 27.969-27.969V428.594c0-15.446-12.523-27.969-27.969-27.969z" fill-rule="evenodd"/>
</svg>
